material/.icons/material/briefcase-clock.svg

<svg xmlns="http://www.w3.org/2000/svg" viewBox="0 0 24 24"><path d="M21 11.11V7a2 2 0 00-2-2h-4V3a2 2 0 00-2-2H9a2 2 0 00-2 2v2H3a2 2 0 00-2 2v11a2 2 0 002 2h7.26A7 7 0 1021 11.11M9 3h4v2H9m10 15a5 5 0 01-6 0 5 5 0 116 0m-4-7h1.5v2.82l2.44 1.41-.75 1.3L15 16.69V13"/></svg>

<?xml version="1.0" encoding="UTF-8"?><!DOCTYPE svg PUBLIC "-//W3C//DTD SVG 1.1//EN" "http://www.w3.org/Graphics/SVG/1.1/DTD/svg11.dtd"><svg xmlns="http://www.w3.org/2000/svg" xmlns:xlink="http://www.w3.org/1999/xlink" version="1.1" id="mdi-briefcase-clock" width="24" height="24" viewBox="0 0 24 24"><path d="M21 11.11V7A2 2 0 0 0 19 5H15V3A2 2 0 0 0 13 1H9A2 2 0 0 0 7 3V5H3A2 2 0 0 0 1 7V18A2 2 0 0 0 3 20H10.26A7 7 0 1 0 21 11.11M9 3H13V5H9M19 20A5 5 0 0 1 13 20A5 5 0 1 1 19 20M15 13H16.5V15.82L18.94 17.23L18.19 18.53L15 16.69V13" /></svg>
